X:1
T:Title
%%score { 1 | 2 }
L:1/8
M:4/4
K:Ab
V:1 treble nm="Grand Piano"
V:2 bass 
V:1
 z4 z2 z[Q:1/4=92] E | EEFG [CA]2 [CE][EA] |[M:7/8] BBc d c3 |[M:1/8] [CE] | %4
[M:4/4] FFF[EG] [EA]2 [EB][Ec] | [=DB]FGA B3 E | EEFG [CA]2 [CE][EA] | BBcc [Fd]3 [Fd] | %8
 [Ed][EB][Ec][Ed] [Ee]2 [EA][FB] | ccBB [CA]4 | eeee c2 AA | [Gd][Ad][Bd][EFd] [EGd]4 | %12
 [EGd][EGB][EAc][DEd] [CEe]2 [A,EA][FB] |[M:7/8] ccB B [CA]3 |] %14
V:2
 z4 z2 z E, | E,[E,G,][E,A,=D][E,B,_D] [A,,A,]2 [A,,A,][C,A,] | %2
[M:7/8] [E,G,E][E,G,E][E,A,E] [E,B,E] [A,E]3 |[M:1/8] [A,,A,] | %4
[M:4/4] [D,A,D][D,A,D][D,A,D][D,B,] [C,A,]2 [B,,G,][A,,A,] | %5
 [B,,F,][A,B,=D][G,B,D][F,B,D] [E,G,E]3 E, | E,[E,G,][E,A,=D][E,B,_D] [A,,A,]2 [A,,A,][C,A,] | %7
 [E,G,E][E,G,E][K:treble][A,E][A,_G][K:bass] [D,A,]3 [D,A,] | %8
 [E,G,][D,G,][C,A,][B,,B,] [A,,C]2 [C,A,][D,A,] | [E,A,E][E,A,E][E,G,D][E,G,D] [A,,A,]4 | %10
 [A,CA][A,CA][A,CA][A,CA] [A,E]2[K:bass] [A,CE][A,CE] | [E,B,][F,B,][G,B,]A, B,4 | %12
 E,D,C,B,, A,,2 C,[D,A,] |[M:7/8] [E,A,E][E,A,E][E,G,D] [E,G,D] [A,,A,]3 |] %14

